X:1
T:Herr Jesu Christ (Bach), LM
T:Herr Jesu Christ (Bach), LM
T:Pensum Sacrum, 1648, arr. by Bach
T:Public Domain Courtesy of the Cyber Hymnal™
C:Pensum Sacrum, 1648, arr. by Bach
Z:Public Domain
Z:Courtesy of the Cyber Hymnal™
%%score ( 1 2 ) ( 3 4 )
L:1/8
Q:1/4=110
M:4/4
K:F
V:1 treble 
V:2 treble 
V:3 bass 
V:4 bass 
V:1
 [CF]2 | [FA]2 [Gc]2 A2 G2 | [FA]2 [F=B]2 [Ec]2 [Fd]2 | (cB) (z [EG]2) (FG) x2 | %4
 [FA]2 [EG]2 !fermata!F2 [EG]2 x | [FA]2 [FA]2 [FG]2 [Ec]2 | c2 =B2 [Ec]2 [CA]2 | %7
 [DB]2 A2 G2 z x3 | [CF]2 [CE]2 !fermata![CF]2 |] %9
V:2
 x2 | x4 (GF) (FE) | x8 | G3 (A2 F) x F2 | x4 F2 x3 | x8 | (DF) (GF) x4 | x2 (CD) E3 (F2 D) | x6 |] %9
V:3
 [F,A,]2 | [F,C]2 [E,C]2 [F,C]2 [C,C]2 | C2 [D,F,]2 [C,G,]2 B,2 | %3
 [E,C]2 [F,C]2 C2 ([A,,C][B,,D]) x | C3 z B, !fermata![F,A,]2 [C,C]2 | [F,C]2 [A,,C]2 C2 G,2 | %6
 A,2 G,2 [C,G,]2 F,2 | ([D,F,][E,G,]) [F,A,]2 (CB,) [D,A,]2 x2 | A,2 [C,G,]2 !fermata![F,,A,]2 |] %9
V:4
 x2 | x8 | (F,E,) x3 (G,F,) x | x4 (C,B,,) x3 | C,2 C,2 x5 | x4 (C,D,) (E,C,) | %6
 (F,D,) G,2 (F,E,) x2 | x4 C,2 x4 | (A,,B,,) x4 |] %9

